workspaces/client/public/images/svg/services-credit.svg

<svg width="41" height="40" viewBox="0 0 41 40" fill="none" xmlns="http://www.w3.org/2000/svg">
<path d="M8.83341 25C7.26675 25 5.81675 25.55 4.66675 26.4667C3.13341 27.6833 2.16675 29.5667 2.16675 31.6667C2.16675 35.35 5.15008 38.3333 8.83341 38.3333C10.5167 38.3333 12.0501 37.7 13.2334 36.6667C14.6167 35.45 15.5001 33.6667 15.5001 31.6667C15.5001 27.9833 12.5167 25 8.83341 25ZM10.5001 32.0833C10.5001 32.5167 10.2667 32.9333 9.90008 33.15L7.81675 34.4C7.61675 34.5333 7.38341 34.5833 7.16675 34.5833C6.75008 34.5833 6.33341 34.3667 6.10008 33.9833C5.75008 33.3833 5.93341 32.6167 6.53341 32.2667L8.01675 31.3833V29.5833C8.00008 28.9 8.56675 28.3333 9.25008 28.3333C9.93341 28.3333 10.5001 28.9 10.5001 29.5833V32.0833Z" fill="white"/>
<path d="M25.2501 6.58341V12.9167H22.7501V6.58341C22.7501 6.13341 22.3501 5.91675 22.0834 5.91675C22.0001 5.91675 21.9167 5.93341 21.8334 5.96675L8.61675 10.9501C7.73341 11.2834 7.16675 12.1167 7.16675 13.0667V14.1834C5.65008 15.3167 4.66675 17.1334 4.66675 19.1834V13.0667C4.66675 11.0834 5.88341 9.31675 7.73341 8.61675L20.9667 3.61675C21.3334 3.48341 21.7167 3.41675 22.0834 3.41675C23.7501 3.41675 25.2501 4.76675 25.2501 6.58341Z" fill="white"/>
<path d="M36.3333 24.1666V25.8333C36.3333 26.2833 35.9833 26.6499 35.5166 26.6666H33.0833C32.2 26.6666 31.4 26.0166 31.3333 25.1499C31.2833 24.6333 31.4833 24.1499 31.8166 23.8166C32.1166 23.4999 32.5333 23.3333 32.9833 23.3333H35.5C35.9833 23.3499 36.3333 23.7166 36.3333 24.1666Z" fill="white"/>
<path d="M32.9667 21.5834H34.6667C35.5834 21.5834 36.3334 20.8334 36.3334 19.9167V19.1834C36.3334 15.7334 33.5167 12.9167 30.0667 12.9167H10.9334C9.51675 12.9167 8.21675 13.3834 7.16675 14.1834C5.65008 15.3167 4.66675 17.1334 4.66675 19.1834V22.1501C4.66675 22.7834 5.33341 23.1834 5.93341 22.9834C6.86675 22.6667 7.85008 22.5001 8.83341 22.5001C13.8834 22.5001 18.0001 26.6167 18.0001 31.6667C18.0001 32.8667 17.6834 34.1834 17.1834 35.3501C16.9167 35.9501 17.3334 36.6667 17.9834 36.6667H30.0667C33.5167 36.6667 36.3334 33.8501 36.3334 30.4001V30.0834C36.3334 29.1667 35.5834 28.4167 34.6667 28.4167H33.2167C31.6167 28.4167 30.0834 27.4334 29.6667 25.8834C29.3334 24.6167 29.7334 23.3834 30.5667 22.5834C31.1834 21.9501 32.0334 21.5834 32.9667 21.5834ZM23.8334 21.2501H15.5001C14.8167 21.2501 14.2501 20.6834 14.2501 20.0001C14.2501 19.3167 14.8167 18.7501 15.5001 18.7501H23.8334C24.5167 18.7501 25.0834 19.3167 25.0834 20.0001C25.0834 20.6834 24.5167 21.2501 23.8334 21.2501Z" fill="white"/>
</svg>

<svg xmlns="http://www.w3.org/2000/svg" width="41" height="40" fill="none"><path fill="#fff" d="M8.833 25c-1.566 0-3.016.55-4.166 1.467a6.62 6.62 0 0 0-2.5 5.2 6.665 6.665 0 0 0 6.666 6.666 6.67 6.67 0 0 0 4.4-1.666 6.64 6.64 0 0 0 2.267-5A6.665 6.665 0 0 0 8.833 25m1.667 7.083c0 .434-.233.85-.6 1.067L7.817 34.4c-.2.133-.434.183-.65.183-.417 0-.834-.216-1.067-.6-.35-.6-.167-1.366.433-1.716l1.484-.884v-1.8a1.234 1.234 0 0 1 1.233-1.25c.683 0 1.25.567 1.25 1.25zM25.25 6.583v6.334h-2.5V6.583c0-.45-.4-.666-.667-.666a.7.7 0 0 0-.25.05L8.617 10.95a2.24 2.24 0 0 0-1.45 2.117v1.116a6.23 6.23 0 0 0-2.5 5v-6.116a4.75 4.75 0 0 1 3.066-4.45l13.234-5c.366-.134.75-.2 1.116-.2 1.667 0 3.167 1.35 3.167 3.166M36.333 24.167v1.666c0 .45-.35.817-.816.834h-2.434c-.883 0-1.683-.65-1.75-1.517-.05-.517.15-1 .484-1.333.3-.317.716-.484 1.166-.484H35.5c.483.017.833.384.833.834"/><path fill="#fff" d="M32.967 21.583h1.7c.916 0 1.666-.75 1.666-1.666v-.734c0-3.45-2.816-6.266-6.266-6.266H10.933a6.18 6.18 0 0 0-3.766 1.266 6.23 6.23 0 0 0-2.5 5v2.967c0 .633.666 1.033 1.266.833a9 9 0 0 1 2.9-.483c5.05 0 9.167 4.117 9.167 9.167 0 1.2-.317 2.516-.817 3.683-.266.6.15 1.317.8 1.317h12.084c3.45 0 6.266-2.817 6.266-6.267v-.317c0-.916-.75-1.666-1.666-1.666h-1.45c-1.6 0-3.134-.984-3.55-2.534-.334-1.266.066-2.5.9-3.3.616-.633 1.466-1 2.4-1m-9.134-.333H15.5A1.26 1.26 0 0 1 14.25 20c0-.683.567-1.25 1.25-1.25h8.333c.684 0 1.25.567 1.25 1.25a1.26 1.26 0 0 1-1.25 1.25"/></svg>
